build/images/cta/bg.svg

<svg width="360px" height="1440px" viewBox="0 0 360 1440" xmlns="http://www.w3.org/2000/svg">
    <g>
        <path d="M2.55795385e-13,252.268046 C70,258.768046 155,365.768046 198.5,480.268046 C222.833333,482.934712 251.666667,523.268046 285,601.268046 C261.007628,649.493936 214.344776,683.567673 145.011443,703.489257 C41.0114426,733.371633 -129.5,660.268046 -124.5,649.268046 C-121.166667,641.934712 -106.333333,554.268046 -80,386.268046 C-73.3333333,292.601379 -46.6666667,247.934712 2.55795385e-13,252.268046 Z" fill="#02C8F0"/>
        <path d="M377,634.268046 C336,602.268046 314.5,584.934712 312.5,582.268046 C309.5,578.268046 232,479.768046 227.5,475.768046 C224.5,473.101379 212.833333,460.101379 192.5,436.768046 L202.5,260.268046 C221.166667,212.268046 234.166667,188.268046 241.5,188.268046 C252.5,188.268046 336.5,197.768046 345,194.768046 C353.5,191.768046 375,197.268046 399,204.768046 C423,212.268046 446.5,238.768046 446.5,260.268046 C446.5,281.768046 430,521.268046 422,540.768046 C416.666667,553.768046 401.666667,584.934712 377,634.268046 Z" fill="#FBEFE1"/>
        <path d="M212,451.768046 C265,459.768046 328,507.768046 362,601.768046 C373.85193,634.535145 459.791496,899.205076 379.685023,917.548739 L377.885448,917.955459 C373.330424,918.972484 367.292501,920.233703 360.010476,921.669906 L360,1440 L0,1440 L-0.0112442174,946.118166 C-2.10165682,945.483435 -4.09957975,944.807775 -6,944.089734 C-92.7145262,911.32615 -11.3203051,707.837727 -27,702.97998 C-41.7563152,698.408306 98.7372639,674 156.5,637.768046 C191.143094,616.037998 283,551.268046 212,451.768046 Z" fill="#1D528A"/>
        <path d="M-1.56319402e-13,252.268046 C74.5,269.268046 148,363.268046 192.5,469.268046 C222.166667,539.934712 217.333333,512.268046 178,386.268046 L202,159.768046 L377,-6.23195417 C375.333333,-19.5652875 373.333333,-26.2319542 371,-26.2319542 C368.666667,-26.2319542 228.166667,-26.2319542 -50.5,-26.2319542 C-66.5,148.101379 -49.6666667,240.934712 -1.56319402e-13,252.268046 Z" fill="#00E0B4"/>
        <path d="M204.5,484.268046 C185,441.268046 172.5,412.268046 166,335.268046 C159.5,258.268046 165,82.2680458 360,-12.7319542 C555,-107.731954 432.630969,91.8380877 410,146.268046 C382,103.268046 257,195.268046 223,316.768046 C200.333333,397.768046 200.333333,457.601379 223,496.268046" fill="#F7CDBB"/>
        <polygon fill="#4740E3" points="150.81066 19.2545899 133.486544 36.578706 157.174621 43.2962204"></polygon>
        <polygon fill="#4740E3" points="183.937646 35.807925 207.488557 42.5610402 190.027214 59.9205184"></polygon>
        <polygon fill="#4740E3" points="150.937646 69.807925 174.488557 76.5610402 157.027214 93.9205184"></polygon>
        <circle fill="#4740E3" cx="295.5" cy="90.7680458" r="24.5"></circle>
        <circle fill="#F8FAFB" cx="87.5" cy="194.768046" r="24.5"></circle>
        <circle fill="#02C8F0" cx="367.5" cy="406.768046" r="24.5"></circle>
        <circle fill="#4740E3" cx="-9.5" cy="346.768046" r="94.5"></circle>
        <circle fill="#F7CDBB" cx="-9.5" cy="346.768046" r="70.5"></circle>
        <polygon fill="#FFA1C6" points="328.029437 501.268046 345 484.297483 361.970563 501.268046 345 518.238609"></polygon>
        <circle fill="#4740E3" cx="-6" cy="59.7680458" r="76"></circle>
        <path d="M-61.5,59.7680458 C-61.5,90.4198494 -36.6518036,115.268046 -6,115.268046 C24.6518036,115.268046 49.5,90.4198494 49.5,59.7680458" fill="#FFFFFF"/>
        <circle fill="#4740E3" cx="367.5" cy="240.768046" r="94.5"></circle>
        <circle fill="#02C8F0" cx="367.5" cy="240.768046" r="70.5"></circle>
        <circle fill="#4740E3" cx="367.5" cy="240.768046" r="28.5"></circle>
        <path d="M276.91576,465.108998 L269.653081,470.511631 C251.877121,483.734985 240.658266,503.974336 238.864049,526.056515 L238.13099,535.078575 L232.728358,527.815896 C219.505003,510.039937 199.265652,498.821081 177.183473,497.026864 L168.161413,496.293805 L175.424092,490.891173 C193.200052,477.667819 204.418907,457.428467 206.213124,435.346289 L206.946183,426.324229 L212.348815,433.586907 C225.57217,451.362867 245.811521,462.581723 267.8937,464.37594 L276.91576,465.108998 Z" fill="#FFFFFF" fill-rule="nonzero"/>
    </g>
</svg>

<svg width="360" height="1440" xmlns="http://www.w3.org/2000/svg"><path d="M0 252.268c70 6.5 155 113.5 198.5 228 24.333 2.667 53.167 43 86.5 121-23.992 48.226-70.655 82.3-139.989 102.221-104 29.883-274.511-43.221-269.511-54.221 3.333-7.333 18.167-95 44.5-263 6.667-93.667 33.333-138.333 80-134z" fill="#02C8F0"/><path d="M377 634.268c-41-32-62.5-49.333-64.5-52-3-4-80.5-102.5-85-106.5-3-2.667-14.667-15.667-35-39l10-176.5c18.667-48 31.667-72 39-72 11 0 95 9.5 103.5 6.5s30 2.5 54 10 47.5 34 47.5 55.5-16.5 261-24.5 280.5c-5.333 13-20.333 44.167-45 93.5z" fill="#FBEFE1"/><path d="M212 451.768c53 8 116 56 150 150 11.852 32.767 97.791 297.437 17.685 315.78l-1.8.407c-4.555 1.017-10.592 2.279-17.875 3.715L360 1440H0l-.011-493.882A95.282 95.282 0 01-6 944.09c-86.715-32.764-5.32-236.252-21-241.11-14.756-4.572 125.737-28.98 183.5-65.212 34.643-21.73 126.5-86.5 55.5-186z" fill="#1D528A"/><path d="M0 252.268c74.5 17 148 111 192.5 217 29.667 70.667 24.833 43-14.5-83l24-226.5 175-166c-1.667-13.333-3.667-20-6-20H-50.5c-16 174.333.833 267.167 50.5 278.5z" fill="#00E0B4"/><path d="M204.5 484.268c-19.5-43-32-72-38.5-149s-1-253 194-348 72.631 104.57 50 159c-28-43-153 49-187 170.5-22.667 81-22.667 140.833 0 179.5" fill="#F7CDBB"/><path fill="#4740E3" d="M150.81 19.255l-17.323 17.324 23.688 6.717zm33.128 16.553l23.55 6.753-17.46 17.36zm-33 34l23.55 6.753-17.46 17.36z"/><circle fill="#4740E3" cx="295.5" cy="90.768" r="24.5"/><circle fill="#F8FAFB" cx="87.5" cy="194.768" r="24.5"/><circle fill="#02C8F0" cx="367.5" cy="406.768" r="24.5"/><circle fill="#4740E3" cx="-9.5" cy="346.768" r="94.5"/><circle fill="#F7CDBB" cx="-9.5" cy="346.768" r="70.5"/><path fill="#FFA1C6" d="M328.03 501.268l16.97-16.97 16.97 16.97-16.97 16.97z"/><circle fill="#4740E3" cx="-6" cy="59.768" r="76"/><path d="M-61.5 59.768c0 30.652 24.848 55.5 55.5 55.5s55.5-24.848 55.5-55.5" fill="#FFF"/><circle fill="#4740E3" cx="367.5" cy="240.768" r="94.5"/><circle fill="#02C8F0" cx="367.5" cy="240.768" r="70.5"/><circle fill="#4740E3" cx="367.5" cy="240.768" r="28.5"/><path d="M276.916 465.109l-7.263 5.403a77 77 0 00-30.789 55.545l-.733 9.022-5.403-7.263a77 77 0 00-55.545-30.79l-9.022-.732 7.263-5.403a77 77 0 0030.79-55.545l.732-9.022 5.403 7.263a77 77 0 0055.545 30.789l9.022.733z" fill="#FFF"/></svg>
